X: 1439
T: Añada De Chanuces
R: reel
M: 4/4
K: Bminor
FBBA (3BcB AB|cded cBAB|c2 cB A2 AG|FEFG EFFF:|
fagf efdf|fdef ag e2|1 fagf efde|efdc dc B2:|2 fagf dBcd|efdc dcBc||
"Last time" fagf dBcd|efdc dBBA|B8||

